svg/file_key_outline.svg

<svg xmlns="http://www.w3.org/2000/svg" viewBox="0 0 24 24"><path d="M14 2H6a2 2 0 0 0-2 2v16a2 2 0 0 0 2 2h12a2 2 0 0 0 2-2V8zm4 18H6V4h7v5h5m-5.17 6a3 3 0 1 0 0 2H14v2h2v-2h1v-2m-7 2a1 1 0 1 1 1-1 1 1 0 0 1-1 1"/></svg>

<?xml version="1.0" encoding="UTF-8"?><!DOCTYPE svg PUBLIC "-//W3C//DTD SVG 1.1//EN" "http://www.w3.org/Graphics/SVG/1.1/DTD/svg11.dtd"><svg xmlns="http://www.w3.org/2000/svg" xmlns:xlink="http://www.w3.org/1999/xlink" version="1.1" id="mdi-file-key-outline" width="24" height="24" viewBox="0 0 24 24"><path d="M14 2H6A2 2 0 0 0 4 4V20A2 2 0 0 0 6 22H18A2 2 0 0 0 20 20V8L14 2M18 20H6V4H13V9H18M12.83 15A3 3 0 1 0 12.83 17H14V19H16V17H17V15M10 17A1 1 0 1 1 11 16A1 1 0 0 1 10 17Z" /></svg>
